**harm	**harte	**timestamp	**phrase	**leadinstrument	**kern
*M4/4	*M4/4	*	*	*	*
*D:	*D:	*	*	*	*D:
1r;	N	0	.	r	1r;
=1	=1	=1	=1	=1	=1
*>A_intro	*>A_intro	*>A_intro	*>A_intro	*>A_intro	*>A_intro
1I	D:maj	0.372	newline	saxophone guitar	1D 1f# 1a
=2	=2	=2	=2	=2	=2
1I	D:maj	2.287	.	saxophone guitar	1D 1f# 1a
=3	=3	=3	=3	=3	=3
1IV	G:maj	4.203	.	saxophone guitar	1G 1b 1dd
=4	=4	=4	=4	=4	=4
1V	A:maj	6.118	.	saxophone guitar	1A 1cc# 1ee
=5	=5	=5	=5	=5	=5
1I	D:maj	8.034	newline	saxophone guitar	1D 1f# 1a
=6	=6	=6	=6	=6	=6
1I	D:maj	9.857	.	saxophone guitar	1D 1f# 1a
=7	=7	=7	=7	=7	=7
1IV	G:maj	11.68	.	saxophone guitar	1G 1b 1dd
=8	=8	=8	=8	=8	=8
1V	A:maj	13.503	.	saxophone guitar	1A 1cc# 1ee
=9	=9	=9	=9	=9	=9
1I	D:maj	15.327	newline	saxophone guitar	1D 1f# 1a
=10	=10	=10	=10	=10	=10
1I	D:maj	17.138	.	saxophone guitar	1D 1f# 1a
=11	=11	=11	=11	=11	=11
1IV	G:maj	18.949	.	saxophone guitar	1G 1b 1dd
=12	=12	=12	=12	=12	=12
1V	A:maj	20.76	.	saxophone guitar	1A 1cc# 1ee
=13	=13	=13	=13	=13	=13
1I	D:maj	22.571	newline	saxophone guitar	1D 1f# 1a
=14	=14	=14	=14	=14	=14
1I	D:maj	24.379	.	saxophone guitar	1D 1f# 1a
=15	=15	=15	=15	=15	=15
1IV	G:maj	26.187	.	saxophone guitar	1G 1b 1dd
=16	=16	=16	=16	=16	=16
1V	A:maj	27.994	.	saxophone guitar	1A 1cc# 1ee
=17	=17	=17	=17	=17	=17
*>B_verse	*>B_verse	*>B_verse	*>B_verse	*>B_verse	*>B_verse
1I	D:maj	29.802	newline	voice	1D 1f# 1a
=18	=18	=18	=18	=18	=18
1Id	D:maj/b7	31.624	.	voice	1d 1f# 1a
=19	=19	=19	=19	=19	=19
1ii	E:min	33.446	.	voice	1E 1g 1b
=20	=20	=20	=20	=20	=20
1V	A:maj	35.268	.	voice	1A 1cc# 1ee
=21	=21	=21	=21	=21	=21
1I	D:maj	37.09	newline	voice	1D 1f# 1a
=22	=22	=22	=22	=22	=22
1Id	D:maj/b7	38.895	.	voice	1d 1f# 1a
=23	=23	=23	=23	=23	=23
1ii	E:min	40.7	.	voice	1E 1g 1b
=24	=24	=24	=24	=24	=24
1V	A:maj	42.504	.	voice	1A 1cc# 1ee
=25	=25	=25	=25	=25	=25
1I	D:maj	44.309	newline	voice	1D 1f# 1a
=26	=26	=26	=26	=26	=26
1Id	D:maj/b7	46.131	.	voice	1d 1f# 1a
=27	=27	=27	=27	=27	=27
1ii	E:min	47.953	.	voice	1E 1g 1b
=28	=28	=28	=28	=28	=28
1V	A:maj	49.776	.	voice	1A 1cc# 1ee
=29	=29	=29	=29	=29	=29
1I	D:maj	51.598	newline	voice	1D 1f# 1a
=30	=30	=30	=30	=30	=30
1Id	D:maj/b7	53.399	.	voice	1d 1f# 1a
=31	=31	=31	=31	=31	=31
1ii	E:min	55.201	.	voice	1E 1g 1b
=32	=32	=32	=32	=32	=32
1V	A:maj	57.002	.	voice	1A 1cc# 1ee
=33	=33	=33	=33	=33	=33
*>C_chorus	*>C_chorus	*>C_chorus	*>C_chorus	*>C_chorus	*>C_chorus
1ii	E:min	58.804	newline	voice	1E 1g 1b
=34	=34	=34	=34	=34	=34
1iii	F#:min	60.624	.	voice	1F# 1a 1cc#
=35	=35	=35	=35	=35	=35
1IV	G:maj	62.444	.	voice	1G 1b 1dd
=36	=36	=36	=36	=36	=36
1iii	F#:min	64.265	.	voice	1F# 1a 1cc#
=37	=37	=37	=37	=37	=37
1ii	E:min	66.085	newline	voice	1E 1g 1b
=38	=38	=38	=38	=38	=38
1iii	F#:min	67.902	.	voice	1F# 1a 1cc#
=39	=39	=39	=39	=39	=39
1IV	G:maj	69.72	.	voice	1G 1b 1dd
=40	=40	=40	=40	=40	=40
1iii	F#:min	71.537	.	voice	1F# 1a 1cc#
=41	=41	=41	=41	=41	=41
*>B_verse	*>B_verse	*>B_verse	*>B_verse	*>B_verse	*>B_verse
1I	D:maj	73.354	newline	voice	1D 1f# 1a
=42	=42	=42	=42	=42	=42
1Id	D:maj/b7	75.165	.	voice	1d 1f# 1a
=43	=43	=43	=43	=43	=43
1ii	E:min	76.975	.	voice	1E 1g 1b
=44	=44	=44	=44	=44	=44
1V	A:maj	78.786	.	voice	1A 1cc# 1ee
=45	=45	=45	=45	=45	=45
1I	D:maj	80.596	newline	voice	1D 1f# 1a
=46	=46	=46	=46	=46	=46
1Id	D:maj/b7	82.406	.	voice	1d 1f# 1a
=47	=47	=47	=47	=47	=47
1ii	E:min	84.215	.	voice	1E 1g 1b
=48	=48	=48	=48	=48	=48
1V	A:maj	86.024	.	voice	1A 1cc# 1ee
=49	=49	=49	=49	=49	=49
1I	D:maj	87.833	newline	voice	1D 1f# 1a
=50	=50	=50	=50	=50	=50
1Id	D:maj/b7	89.65	.	voice	1d 1f# 1a
=51	=51	=51	=51	=51	=51
1ii	E:min	91.468	.	voice	1E 1g 1b
=52	=52	=52	=52	=52	=52
1V	A:maj	93.285	.	voice	1A 1cc# 1ee
=53	=53	=53	=53	=53	=53
1I	D:maj	95.102	newline	voice	1D 1f# 1a
=54	=54	=54	=54	=54	=54
1Id	D:maj/b7	96.915	.	voice	1d 1f# 1a
=55	=55	=55	=55	=55	=55
1ii	E:min	98.727	.	voice	1E 1g 1b
=56	=56	=56	=56	=56	=56
1V	A:maj	100.54	.	voice	1A 1cc# 1ee
=57	=57	=57	=57	=57	=57
*>C_chorus	*>C_chorus	*>C_chorus	*>C_chorus	*>C_chorus	*>C_chorus
1ii	E:min	102.352	newline	voice	1E 1g 1b
=58	=58	=58	=58	=58	=58
1iii	F#:min	104.176	.	voice	1F# 1a 1cc#
=59	=59	=59	=59	=59	=59
1IV	G:maj	105.999	.	voice	1G 1b 1dd
=60	=60	=60	=60	=60	=60
1iii	F#:min	107.822	.	voice	1F# 1a 1cc#
=61	=61	=61	=61	=61	=61
1ii	E:min	109.646	newline	voice	1E 1g 1b
=62	=62	=62	=62	=62	=62
1iii	F#:min	111.451	.	voice	1F# 1a 1cc#
=63	=63	=63	=63	=63	=63
1IV	G:maj	113.257	.	voice	1G 1b 1dd
=64	=64	=64	=64	=64	=64
1iii	F#:min	115.062	.	voice	1F# 1a 1cc#
=65	=65	=65	=65	=65	=65
*>A_interlude	*>A_interlude	*>A_interlude	*>A_interlude	*>A_interlude	*>A_interlude
1I	D:maj	116.868	newline	keyboard	1D 1f# 1a
=66	=66	=66	=66	=66	=66
1I	D:maj	118.681	.	keyboard	1D 1f# 1a
=67	=67	=67	=67	=67	=67
1IV	G:maj	120.495	.	keyboard	1G 1b 1dd
=68	=68	=68	=68	=68	=68
1V	A:maj	122.308	.	keyboard	1A 1cc# 1ee
=69	=69	=69	=69	=69	=69
1I	D:maj	124.121	newline	keyboard	1D 1f# 1a
=70	=70	=70	=70	=70	=70
1I	D:maj	125.936	.	keyboard	1D 1f# 1a
=71	=71	=71	=71	=71	=71
1IV	G:maj	127.751	.	keyboard	1G 1b 1dd
=72	=72	=72	=72	=72	=72
1V	A:maj	129.566	.	keyboard	1A 1cc# 1ee
=73	=73	=73	=73	=73	=73
1I	D:maj	131.381	newline	keyboard	1D 1f# 1a
=74	=74	=74	=74	=74	=74
1I	D:maj	133.188	.	keyboard	1D 1f# 1a
=75	=75	=75	=75	=75	=75
1IV	G:maj	134.994	.	keyboard	1G 1b 1dd
=76	=76	=76	=76	=76	=76
1V	A:maj	136.801	.	keyboard	1A 1cc# 1ee
=77	=77	=77	=77	=77	=77
1I	D:maj	138.608	newline	keyboard	1D 1f# 1a
=78	=78	=78	=78	=78	=78
1I	D:maj	140.421	.	keyboard	1D 1f# 1a
=79	=79	=79	=79	=79	=79
1IV	G:maj	142.234	.	keyboard	1G 1b 1dd
=80	=80	=80	=80	=80	=80
1V	A:maj	144.048	.	keyboard	1A 1cc# 1ee
=81	=81	=81	=81	=81	=81
*>B_verse	*>B_verse	*>B_verse	*>B_verse	*>B_verse	*>B_verse
1I	D:maj	145.861	newline	voice	1D 1f# 1a
=82	=82	=82	=82	=82	=82
1Id	D:maj/b7	147.687	.	voice	1d 1f# 1a
=83	=83	=83	=83	=83	=83
1ii	E:min	149.512	.	voice	1E 1g 1b
=84	=84	=84	=84	=84	=84
1V	A:maj	151.338	.	voice	1A 1cc# 1ee
=85	=85	=85	=85	=85	=85
1I	D:maj	153.163	newline	voice	1D 1f# 1a
=86	=86	=86	=86	=86	=86
1Id	D:maj/b7	154.974	.	voice	1d 1f# 1a
=87	=87	=87	=87	=87	=87
1ii	E:min	156.784	.	voice	1E 1g 1b
=88	=88	=88	=88	=88	=88
1V	A:maj	158.594	.	voice	1A 1cc# 1ee
=89	=89	=89	=89	=89	=89
1I	D:maj	160.404	newline	voice	1D 1f# 1a
=90	=90	=90	=90	=90	=90
1Id	D:maj/b7	162.215	.	voice	1d 1f# 1a
=91	=91	=91	=91	=91	=91
1ii	E:min	164.025	.	voice	1E 1g 1b
=92	=92	=92	=92	=92	=92
1V	A:maj	165.835	.	voice	1A 1cc# 1ee
=93	=93	=93	=93	=93	=93
1I	D:maj	167.645	newline	voice	1D 1f# 1a
=94	=94	=94	=94	=94	=94
1Id	D:maj/b7	169.448	.	voice	1d 1f# 1a
=95	=95	=95	=95	=95	=95
1ii	E:min	171.25	.	voice	1E 1g 1b
=96	=96	=96	=96	=96	=96
1V	A:maj	173.053	.	voice	1A 1cc# 1ee
=97	=97	=97	=97	=97	=97
*>C_chorus	*>C_chorus	*>C_chorus	*>C_chorus	*>C_chorus	*>C_chorus
1ii	E:min	174.856	newline	voice	1E 1g 1b
=98	=98	=98	=98	=98	=98
1iii	F#:min	176.682	.	voice	1F# 1a 1cc#
=99	=99	=99	=99	=99	=99
1IV	G:maj	178.508	.	voice	1G 1b 1dd
=100	=100	=100	=100	=100	=100
1iii	F#:min	180.334	.	voice	1F# 1a 1cc#
=101	=101	=101	=101	=101	=101
1ii	E:min	182.161	newline	voice	1E 1g 1b
=102	=102	=102	=102	=102	=102
1iii	F#:min	183.962	.	voice	1F# 1a 1cc#
=103	=103	=103	=103	=103	=103
1IV	G:maj	185.764	.	voice	1G 1b 1dd
=104	=104	=104	=104	=104	=104
1iii	F#:min	187.565	.	voice	1F# 1a 1cc#
=105	=105	=105	=105	=105	=105
*>A_solo	*>A_solo	*>A_solo	*>A_solo	*>A_solo	*>A_solo
1I	D:maj	189.367	newline	saxophone guitar	1D 1f# 1a
=106	=106	=106	=106	=106	=106
1I	D:maj	191.185	.	saxophone guitar	1D 1f# 1a
=107	=107	=107	=107	=107	=107
1IV	G:maj	193.003	.	saxophone guitar	1G 1b 1dd
=108	=108	=108	=108	=108	=108
1V	A:maj	194.822	.	saxophone guitar	1A 1cc# 1ee
=109	=109	=109	=109	=109	=109
1I	D:maj	196.64	newline	saxophone guitar	1D 1f# 1a
=110	=110	=110	=110	=110	=110
1I	D:maj	198.451	.	saxophone guitar	1D 1f# 1a
=111	=111	=111	=111	=111	=111
1IV	G:maj	200.262	.	saxophone guitar	1G 1b 1dd
=112	=112	=112	=112	=112	=112
1V	A:maj	202.073	.	saxophone guitar	1A 1cc# 1ee
=113	=113	=113	=113	=113	=113
1I	D:maj	203.884	newline	saxophone guitar	1D 1f# 1a
=114	=114	=114	=114	=114	=114
1I	D:maj	205.693	.	saxophone guitar	1D 1f# 1a
=115	=115	=115	=115	=115	=115
1IV	G:maj	207.502	.	saxophone guitar	1G 1b 1dd
=116	=116	=116	=116	=116	=116
1V	A:maj	209.31	.	saxophone guitar	1A 1cc# 1ee
=117	=117	=117	=117	=117	=117
1I	D:maj	211.119	newline	saxophone guitar	1D 1f# 1a
=118	=118	=118	=118	=118	=118
1I	D:maj	212.932	.	saxophone guitar	1D 1f# 1a
=119	=119	=119	=119	=119	=119
1IV	G:maj	214.745	.	saxophone guitar	1G 1b 1dd
=120	=120	=120	=120	=120	=120
1V	A:maj	216.558	.	saxophone guitar	1A 1cc# 1ee
=121	=121	=121	=121	=121	=121
*>A_outro	*>A_outro	*>A_outro	*>A_outro	*>A_outro	*>A_outro
1I	D:maj	218.372	newline	voice	1D 1f# 1a
=122	=122	=122	=122	=122	=122
1I	D:maj	220.194	.	voice	1D 1f# 1a
=123	=123	=123	=123	=123	=123
1IV	G:maj	222.017	.	voice	1G 1b 1dd
=124	=124	=124	=124	=124	=124
1V	A:maj	223.84	.	voice	1A 1cc# 1ee
=125	=125	=125	=125	=125	=125
1I	D:maj	225.662	newline	voice	1D 1f# 1a
=126	=126	=126	=126	=126	=126
1I	D:maj	227.479	.	voice	1D 1f# 1a
=127	=127	=127	=127	=127	=127
1IV	G:maj	229.295	.	voice	1G 1b 1dd
=128	=128	=128	=128	=128	=128
1V	A:maj	231.111	.	voice	1A 1cc# 1ee
=129	=129	=129	=129	=129	=129
1I	D:maj	232.927	newline	saxophone	1D 1f# 1a
=130	=130	=130	=130	=130	=130
1I	D:maj	234.738	.	saxophone	1D 1f# 1a
=131	=131	=131	=131	=131	=131
1IV	G:maj	236.55	.	saxophone	1G 1b 1dd
=132	=132	=132	=132	=132	=132
1V	A:maj	238.361	.	saxophone	1A 1cc# 1ee
=133	=133	=133	=133	=133	=133
1I	D:maj	240.172	newline	saxophone	1D 1f# 1a
=134	=134	=134	=134	=134	=134
1I	D:maj	241.981	.	saxophone	1D 1f# 1a
=135	=135	=135	=135	=135	=135
1IV	G:maj	243.789	.	saxophone	1G 1b 1dd
=136	=136	=136	=136	=136	=136
1V	A:maj	245.598	.	saxophone	1A 1cc# 1ee
=137	=137	=137	=137	=137	=137
1I	D:maj	247.407	newline	voice	1D 1f# 1a
=138	=138	=138	=138	=138	=138
1I	D:maj	249.218	.	voice	1D 1f# 1a
=139	=139	=139	=139	=139	=139
1IV	G:maj	251.029	.	voice	1G 1b 1dd
=140	=140	=140	=140	=140	=140
1V	A:maj	252.84	.	voice	1A 1cc# 1ee
=141	=141	=141	=141	=141	=141
1I	D:maj	254.651	newline	voice	1D 1f# 1a
=142	=142	=142	=142	=142	=142
1I	D:maj	256.474	.	voice	1D 1f# 1a
=143	=143	=143	=143	=143	=143
1IV	G:maj	258.296	.	voice	1G 1b 1dd
=144	=144	=144	=144	=144	=144
1V	A:maj	260.118	.	voice	1A 1cc# 1ee
=145	=145	=145	=145	=145	=145
1I	D:maj	261.94	newline	saxophone	1D 1f# 1a
=146	=146	=146	=146	=146	=146
1I	D:maj	263.769	.	saxophone	1D 1f# 1a
=147	=147	=147	=147	=147	=147
1IV	G:maj	265.597	.	saxophone	1G 1b 1dd
=148	=148	=148	=148	=148	=148
1V	A:maj	267.425	.	saxophone	1A 1cc# 1ee
=149	=149	=149	=149	=149	=149
*>_fadeout	*>_fadeout	*>_fadeout	*>_fadeout	*>_fadeout	*>_fadeout
1I	D:maj	269.253	newline	saxophone	1D 1f# 1a
=150	=150	=150	=150	=150	=150
1I	D:maj	271.073	.	saxophone	1D 1f# 1a
=151	=151	=151	=151	=151	=151
1IV	G:maj	272.894	.	saxophone	1G 1b 1dd
=152	=152	=152	=152	=152	=152
1V	A:maj	274.714	.	saxophone	1A 1cc# 1ee
1r;	N	277.444	.	r	1r;
1r;	N	279.993	.	r	1r;
*-	*-	*-	*-	*-	*-
!!!OTL: Pretty In Pink
!!!COC: Psychedelic Furs
!!!BillboardChartDate: 1986/05/24
!!!BillboardPeak: 41
!!!BillboardWeeksOnChart: 11
!!!SampleTargetRank: 42
!!!SampleActualRank: 42
!!!SampleID#: 0729
!!!RDF**harmony: **recip + pitch class of root + harmonic quality
!!!RDF**harte: Chris Harte's syntax, used by MIREX
!!!RDF**phrase: newline = linebreak in original McGill transcription
!!!RDF**timestamp: McGill audio timestamp in seconds
!!!RDF**leadinstrument: original McGill primary instrumentation annotation
!!!RDT: 2017/01/12/
!!!ENC: Nathaniel Condit-Schultz
!!!EST: Awating manual error checking and editing.
